src/assets/img/icons/lineal/files.svg

<svg xmlns="http://www.w3.org/2000/svg" viewBox="0 0 512 512"><path class="lineal-stroke" d="M496.34 324.1H356.2a15.66 15.66 0 010-31.32h124.49V31.31H219.22v107.26a15.66 15.66 0 01-31.32 0V15.66A15.66 15.66 0 01203.56 0h292.78A15.66 15.66 0 01512 15.66v292.78a15.66 15.66 0 01-15.66 15.66z"/><path class="lineal-stroke" d="M230.42 512H15.66A15.66 15.66 0 010 496.34V203.56a15.66 15.66 0 0115.66-15.66h292.78a15.66 15.66 0 0115.66 15.66v198.83a15.66 15.66 0 11-31.32 0V219.22H31.31v261.47h199.11a15.66 15.66 0 110 31.31z"/><path class="lineal-fill" d="M109.61 109.61v93.95h198.83v198.83h93.95V109.61H109.61z"/><path class="lineal-stroke" d="M402.39 418.05h-93.95a15.66 15.66 0 01-15.66-15.66V219.22H109.61A15.66 15.66 0 0194 203.56v-93.95A15.66 15.66 0 01109.61 94h292.78a15.66 15.66 0 0115.66 15.66v292.73a15.66 15.66 0 01-15.66 15.66zm-78.29-31.31h62.64V125.26H125.26v62.64h183.18a15.66 15.66 0 0115.66 15.66z"/></svg>

<svg xmlns="http://www.w3.org/2000/svg" viewBox="0 0 512 512"><path class="lineal-stroke" d="M496.34,324.1H356.2a15.66,15.66,0,0,1,0-31.32H480.69V31.31H219.22V138.57a15.66,15.66,0,0,1-31.32,0V15.66A15.66,15.66,0,0,1,203.56,0H496.34A15.66,15.66,0,0,1,512,15.66V308.44A15.66,15.66,0,0,1,496.34,324.1Z"/><path class="lineal-stroke" d="M230.42,512H15.66A15.66,15.66,0,0,1,0,496.34V203.56A15.66,15.66,0,0,1,15.66,187.9H308.44a15.66,15.66,0,0,1,15.66,15.66V402.39a15.66,15.66,0,1,1-31.32,0V219.22H31.31V480.69H230.42a15.66,15.66,0,1,1,0,31.31Z"/><polygon class="lineal-fill" points="109.61 109.61 109.61 203.56 308.44 203.56 308.44 402.39 402.39 402.39 402.39 109.61 109.61 109.61"/><path class="lineal-stroke" d="M402.39,418.05H308.44a15.66,15.66,0,0,1-15.66-15.66V219.22H109.61A15.66,15.66,0,0,1,94,203.56V109.61A15.66,15.66,0,0,1,109.61,94H402.39a15.66,15.66,0,0,1,15.66,15.66V402.39A15.66,15.66,0,0,1,402.39,418.05ZM324.1,386.74h62.64V125.26H125.26V187.9H308.44a15.66,15.66,0,0,1,15.66,15.66Z"/></svg>
